src/assets/images/icon3.svg

<svg enable-background="new 0 0 512 512" viewBox="0 0 512 512" xmlns="http://www.w3.org/2000/svg"><g fill="#1c9c81"><path d="m502 108.334c5.522-.001 10-4.478 10-10.001v-56.333c0-23.159-18.841-42-42-42-1.826 0-3.621.13-5.386.357-.834-.226-1.708-.357-2.614-.357h-356c-23.159 0-42 18.841-42 42v104.342c-23.61 2.732-42.003 22.837-42.003 47.167v242.491h-11.997c-5.522 0-10 4.477-10 10v18.253c0 26.328 21.419 47.747 47.746 47.747h416.508c26.327 0 47.746-21.419 47.746-47.747v-18.253c0-5.523-4.478-10-10-10h-12.003v-242.491c0-24.328-18.39-44.431-41.997-47.166v-38.009zm-54-66.334c0-12.131 9.869-22 22-22s22 9.869 22 22v46.333h-44zm-364 0c0-12.131 9.869-22 22-22h328.242c-3.954 6.403-6.242 13.938-6.242 22v394h-6-72v-157.539l36-36v118.79c0 5.523 4.478 10 10 10s10-4.477 10-10v-142.933c0-4.044-2.437-7.691-6.173-9.239-3.736-1.549-8.038-.692-10.898 2.167l-106.884 106.886-46.429-46.429c-3.457-3.456-8.903-3.908-12.882-1.068l-112.045 79.991c-2.629 1.877-4.189 4.908-4.189 8.139v77.235h-22.5zm209.95 292.511 36.05-36.05v137.539h-36v-100.5c0-.334-.018-.663-.05-.989zm-19.95 3.861v97.628h-36v-133.629zm-56-39.783v137.411h-36v-111.71zm-56 39.98v97.431h-35.5v-72.087zm-120.003-145.06c0-13.281 9.465-24.391 22.003-26.943v269.434h-22.003zm450.003 262.491v8.253c0 15.3-12.447 27.747-27.746 27.747h-416.508c-15.299 0-27.746-12.447-27.746-27.747v-8.253zm-22.003-262.491v242.491h-21.997v-269.433c12.535 2.554 21.997 13.664 21.997 26.942z"/><path d="m403.069 394.6c-1.859-1.87-4.439-2.93-7.069-2.93s-5.21 1.06-7.07 2.93c-1.86 1.86-2.93 4.44-2.93 7.07s1.069 5.21 2.93 7.07 4.44 2.93 7.07 2.93 5.21-1.07 7.069-2.93c1.86-1.86 2.931-4.44 2.931-7.07 0-2.64-1.07-5.21-2.931-7.07z"/><path d="m396.982 118.445h-41.191c-5.522 0-10 4.477-10 10s4.478 10 10 10h17.049l-95.466 95.466-43.613-43.613c-3.461-3.459-8.916-3.907-12.894-1.059l-77.593 55.567c-4.49 3.216-5.523 9.462-2.308 13.953 1.953 2.727 5.023 4.179 8.139 4.179 2.015 0 4.05-.608 5.813-1.871l70.697-50.629 44.687 44.687c3.906 3.905 10.236 3.904 14.143 0l102.537-102.537v17.049c0 5.523 4.478 10 10 10s10-4.477 10-10v-41.192c0-5.523-4.478-10-10-10z"/><path d="m120.84 271.16c-1.86-1.86-4.44-2.92-7.07-2.92s-5.21 1.06-7.069 2.92c-1.86 1.86-2.931 4.44-2.931 7.07 0 2.64 1.07 5.21 2.931 7.08 1.859 1.86 4.439 2.93 7.069 2.93s5.21-1.07 7.07-2.93c1.86-1.87 2.93-4.44 2.93-7.08 0-2.63-1.069-5.21-2.93-7.07z"/><path d="m178.636 105.555c-7.486 0-13.577-5.113-13.577-11.398s6.091-11.398 13.577-11.398c7.487 0 13.578 5.113 13.578 11.398 0 5.523 4.478 10 10 10s10-4.477 10-10c0-14.058-9.932-25.987-23.578-29.976v-.323c0-5.523-4.478-10-10-10s-10 4.477-10 10v.323c-13.646 3.989-23.577 15.918-23.577 29.976 0 17.313 15.063 31.398 33.577 31.398 7.487 0 13.578 5.113 13.578 11.398s-6.091 11.399-13.578 11.399c-7.486 0-13.577-5.113-13.577-11.398 0-5.523-4.478-10-10-10s-10 4.477-10 10c0 14.058 9.931 25.987 23.577 29.976v.07c0 5.523 4.478 10 10 10s10-4.477 10-10v-.071c13.646-3.989 23.578-15.918 23.578-29.976 0-17.313-15.063-31.398-33.578-31.398z"/><path d="m278.333 464h-44.166c-5.522 0-10 4.477-10 10s4.478 10 10 10h44.166c5.522 0 10-4.477 10-10s-4.478-10-10-10z"/></g></svg>

<?xml version="1.0" encoding="iso-8859-1"?>
<!-- Generator: Adobe Illustrator 19.0.0, SVG Export Plug-In . SVG Version: 6.00 Build 0)  -->
<svg version="1.1" id="Capa_1" xmlns="http://www.w3.org/2000/svg" xmlns:xlink="http://www.w3.org/1999/xlink" x="0px" y="0px"
	 viewBox="0 0 512 512" style="enable-background:new 0 0 512 512;" xml:space="preserve">
<g>
	<g>
		<path fill="#1C9C81" d="M502,108.334L502,108.334c5.522-0.001,10-4.478,10-10.001V42c0-23.159-18.841-42-42-42c-1.826,0-3.621,0.13-5.386,0.357
			C463.78,0.131,462.906,0,462,0H106C82.841,0,64,18.841,64,42v104.342c-23.61,2.732-42.003,22.837-42.003,47.167V436H10
			c-5.522,0-10,4.477-10,10v18.253C0,490.581,21.419,512,47.746,512h416.508C490.581,512,512,490.581,512,464.253V446
			c0-5.523-4.478-10-10-10h-12.003V193.509c0-24.328-18.39-44.431-41.997-47.166v-38.009H502z M448,42c0-12.131,9.869-22,22-22
			c12.131,0,22,9.869,22,22v46.333h-44V42z M84,42c0-12.131,9.869-22,22-22h328.242C430.288,26.403,428,33.938,428,42v394h-6h-72
			V278.461l36-36v118.79c0,5.523,4.478,10,10,10c5.522,0,10-4.477,10-10V218.318c0-4.044-2.437-7.691-6.173-9.239
			c-3.736-1.549-8.038-0.692-10.898,2.167L282.045,318.132l-46.429-46.429c-3.457-3.456-8.903-3.908-12.882-1.068l-112.045,79.991
			c-2.629,1.877-4.189,4.908-4.189,8.139V436H84V42z M293.95,334.511l36.05-36.05V436h-36V335.5
			C294,335.166,293.982,334.837,293.95,334.511z M274,338.372V436h-36V302.371L274,338.372z M218,298.589V436h-36V324.29
			L218,298.589z M162,338.569V436h-35.5v-72.087L162,338.569z M41.997,193.509c0-13.281,9.465-24.391,22.003-26.943V436H41.997
			V193.509z M492,456v8.253c0,15.3-12.447,27.747-27.746,27.747H47.746C32.447,492,20,479.553,20,464.253V456H492z M469.997,193.509
			V436H448V166.567C460.535,169.121,469.997,180.231,469.997,193.509z"/>
	</g>
</g>
<g>
	<g>
		<path fill="#1C9C81" d="M403.069,394.6c-1.859-1.87-4.439-2.93-7.069-2.93s-5.21,1.06-7.07,2.93c-1.86,1.86-2.93,4.44-2.93,7.07
			s1.069,5.21,2.93,7.07c1.861,1.86,4.44,2.93,7.07,2.93s5.21-1.07,7.069-2.93c1.86-1.86,2.931-4.44,2.931-7.07
			C406,399.03,404.93,396.46,403.069,394.6z"/>
	</g>
</g>
<g>
	<g>
		<path fill="#1C9C81" d="M396.982,118.445h-41.191c-5.522,0-10,4.477-10,10c0,5.523,4.478,10,10,10h17.049l-95.466,95.466l-43.613-43.613
			c-3.461-3.459-8.916-3.907-12.894-1.059l-77.593,55.567c-4.49,3.216-5.523,9.462-2.308,13.953
			c1.953,2.727,5.023,4.179,8.139,4.179c2.015,0,4.05-0.608,5.813-1.871l70.697-50.629l44.687,44.687
			c3.906,3.905,10.236,3.904,14.143,0l102.537-102.537v17.049c0,5.523,4.478,10,10,10c5.522,0,10-4.477,10-10v-41.192
			C406.982,122.922,402.504,118.445,396.982,118.445z"/>
	</g>
</g>
<g>
	<g>
		<path fill="#1C9C81" d="M120.84,271.16c-1.86-1.86-4.44-2.92-7.07-2.92s-5.21,1.06-7.069,2.92c-1.86,1.86-2.931,4.44-2.931,7.07
			c0,2.64,1.07,5.21,2.931,7.08c1.859,1.86,4.439,2.93,7.069,2.93s5.21-1.07,7.07-2.93c1.86-1.87,2.93-4.44,2.93-7.08
			C123.77,275.6,122.701,273.02,120.84,271.16z"/>
	</g>
</g>
<g>
	<g>
		<path fill="#1C9C81" d="M178.636,105.555c-7.486,0-13.577-5.113-13.577-11.398c0-6.285,6.091-11.398,13.577-11.398
			c7.487,0,13.578,5.113,13.578,11.398c0,5.523,4.478,10,10,10c5.522,0,10-4.477,10-10c0-14.058-9.932-25.987-23.578-29.976v-0.323
			c0-5.523-4.478-10-10-10c-5.522,0-10,4.477-10,10v0.323c-13.646,3.989-23.577,15.918-23.577,29.976
			c0,17.313,15.063,31.398,33.577,31.398c7.487,0,13.578,5.113,13.578,11.398c0,6.285-6.091,11.399-13.578,11.399
			c-7.486,0-13.577-5.113-13.577-11.398c0-5.523-4.478-10-10-10c-5.522,0-10,4.477-10,10c0,14.058,9.931,25.987,23.577,29.976V167
			c0,5.523,4.478,10,10,10c5.522,0,10-4.477,10-10v-0.071c13.646-3.989,23.578-15.918,23.578-29.976
			C212.214,119.64,197.151,105.555,178.636,105.555z"/>
	</g>
</g>
<g>
	<g>
		<path fill="#1C9C81" d="M278.333,464h-44.166c-5.522,0-10,4.477-10,10s4.478,10,10,10h44.166c5.522,0,10-4.477,10-10S283.855,464,278.333,464z"/>
	</g>
</g>
<g>
</g>
<g>
</g>
<g>
</g>
<g>
</g>
<g>
</g>
<g>
</g>
<g>
</g>
<g>
</g>
<g>
</g>
<g>
</g>
<g>
</g>
<g>
</g>
<g>
</g>
<g>
</g>
<g>
</g>
</svg>
